brandFactory_export/1.Light/Antena_1Light.svg

<?xml version="1.0" encoding="UTF-8"?>
<svg width="24px" height="24px" viewBox="0 0 24 24" version="1.1" xmlns="http://www.w3.org/2000/svg" xmlns:xlink="http://www.w3.org/1999/xlink">
    <title>1.Light/Antena_1Light</title>
    <g id="Symbols" stroke="none" stroke-width="1" fill="none" fill-rule="evenodd">
        <g id="1.Light/Antena_1Light" fill="#5CB615" fill-rule="nonzero">
            <path d="M19.6268908,22.6016807 L19.6268908,20.2588235 L4.02016807,20.2588235 L4.02016807,22.6016807 L19.6268908,22.6016807 Z M10.6218487,15.912605 L12.9882353,15.912605 L11.7983193,12.5848739 L10.6218487,15.912605 Z M13.3647059,16.9680672 L10.2453782,16.9680672 L9.45546218,19.2 L14.1613445,19.2 L13.3647059,16.9680672 Z M10.5008403,7.65042017 L6.39663866,19.2 L8.38319328,19.2 L11.3210084,10.8840336 C11.3243697,10.8773109 11.3277311,10.8739496 11.3310924,10.8672269 C11.3445378,10.8336134 11.3647059,10.8067227 11.3848739,10.7764706 C11.4016807,10.7462185 11.4184874,10.7193277 11.4386555,10.692437 C11.4588235,10.6756303 11.4823529,10.6588235 11.5058824,10.6420168 C11.5361345,10.6184874 11.5663866,10.594958 11.6033613,10.5781513 C11.610084,10.5747899 11.6134454,10.5714286 11.6201681,10.5680672 C11.6436975,10.5579832 11.6672269,10.5613445 11.6907563,10.5579832 C11.7277311,10.5512605 11.7613445,10.5411765 11.7983193,10.5411765 C11.8319328,10.5411765 11.8655462,10.5512605 11.8991597,10.5546218 C11.9260504,10.5613445 11.9495798,10.5579832 11.9731092,10.5680672 C11.9798319,10.5714286 11.9831933,10.5781513 11.989916,10.5815126 C12.0235294,10.594958 12.0470588,10.6184874 12.0773109,10.6386555 C12.1008403,10.6554622 12.1277311,10.6722689 12.1512605,10.692437 C12.1714286,10.7159664 12.1848739,10.7428571 12.205042,10.7697479 C12.2252101,10.8 12.2487395,10.8268908 12.2621849,10.8638655 C12.2655462,10.8705882 12.2689076,10.8739496 12.2722689,10.8806723 L15.2470588,19.1966387 L17.2,19.1966387 L13.092437,7.64369748 C12.7226891,7.80168067 12.2957983,7.89243697 11.794958,7.89243697 C11.2941176,7.89579832 10.8672269,7.80840336 10.5008403,7.65042017 L10.5008403,7.65042017 Z M10.507563,3.68739496 C10.2319328,3.96302521 10.0941176,4.4302521 10.0941176,5.06218487 C10.0941176,5.49915966 10.1647059,5.85210084 10.2991597,6.1210084 C10.3563025,6.24201681 10.4235294,6.34957983 10.507563,6.43361345 C10.5915966,6.5210084 10.6991597,6.58823529 10.8201681,6.64537815 C11.0722689,6.77310924 11.394958,6.83697479 11.7915966,6.83697479 C12.194958,6.83697479 12.5176471,6.7697479 12.7697479,6.64201681 C12.887395,6.58487395 12.994958,6.51764706 13.0823529,6.4302521 C13.1663866,6.34621849 13.2336134,6.23865546 13.2941176,6.11764706 C13.4252101,5.84537815 13.4991597,5.49579832 13.4991597,5.05882353 C13.4991597,4.42689076 13.3579832,3.96302521 13.0823529,3.68403361 C12.8134454,3.41176471 12.3798319,3.27394958 11.7915966,3.27394958 C11.2067227,3.28067227 10.7731092,3.41848739 10.507563,3.68739496 L10.507563,3.68739496 Z M20.1310924,19.2 C20.410084,19.2 20.6352941,19.4386555 20.6352941,19.7277311 L20.6352941,23.1260504 C20.6352941,23.4184874 20.410084,23.6537815 20.1310924,23.6537815 L3.51260504,23.6537815 C3.23361345,23.6537815 3.00840336,23.4184874 3.00840336,23.1260504 L3.00840336,19.7277311 C3.00840336,19.4386555 3.23361345,19.2 3.51260504,19.2 L5.31764706,19.2 L9.65378151,7.00168067 C9.28067227,6.52773109 9.08235294,5.88571429 9.08235294,5.06554622 C9.08235294,4.13445378 9.32436975,3.41512605 9.80504202,2.93109244 C10.2689076,2.46386555 10.9344538,2.22521008 11.7915966,2.22521008 C12.6487395,2.22521008 13.3176471,2.46386555 13.7815126,2.93109244 C14.2655462,3.41848739 14.507563,4.13781513 14.507563,5.06554622 C14.507563,5.88571429 14.3092437,6.52436975 13.9361345,7.00168067 L18.2722689,19.2033613 L20.1310924,19.2033613 L20.1310924,19.2 Z M1.00840336,5.06218487 C1.00840336,6.87731092 1.46890756,8.25882353 2.37647059,9.17983193 C2.57815126,9.38151261 2.58487395,9.71428571 2.38991597,9.92605042 C2.29243697,10.0336134 2.15798319,10.087395 2.02689076,10.087395 C1.89915966,10.087395 1.77478992,10.0369748 1.67731092,9.9394958 C0.564705882,8.81680672 0,7.17647059 0,5.06218487 C0,2.94789916 0.564705882,1.30756303 1.67731092,0.181512605 C1.87563025,-0.0235294118 2.19831933,-0.0168067227 2.38991597,0.194957983 C2.58487395,0.403361345 2.57815126,0.736134454 2.37647059,0.941176471 C1.46890756,1.86218487 1.00840336,3.24705882 1.00840336,5.06218487 Z M5.45882353,8.38655462 C5.33109244,8.38655462 5.20672269,8.33613445 5.1092437,8.23865546 C4.37983193,7.50252101 4.01008403,6.43361345 4.01008403,5.06218487 C4.01008403,3.69411765 4.37983193,2.62184874 5.1092437,1.88571429 C5.31092437,1.68067227 5.6302521,1.68739496 5.82184874,1.89579832 C6.01680672,2.10756303 6.01008403,2.44033613 5.81176471,2.64201681 C5.28403361,3.17310924 5.01848739,3.98991597 5.01848739,5.06218487 C5.01848739,6.13445378 5.28403361,6.94789916 5.80840336,7.4789916 C6.01008403,7.68067227 6.01680672,8.01344538 5.82184874,8.22521008 C5.72436975,8.32941176 5.59327731,8.38655462 5.45882353,8.38655462 L5.45882353,8.38655462 Z M21.9462185,0.181512605 C23.0588235,1.30756303 23.6235294,2.9512605 23.6235294,5.06218487 C23.6235294,7.17310924 23.0588235,8.81680672 21.9462185,9.9394958 C21.8487395,10.0369748 21.7210084,10.087395 21.5966387,10.087395 C21.4655462,10.087395 21.3344538,10.0336134 21.2336134,9.92605042 C21.0420168,9.71428571 21.0453782,9.38151261 21.2470588,9.17983193 C22.1546218,8.26218487 22.6151261,6.88067227 22.6151261,5.06218487 C22.6151261,3.24705882 22.1546218,1.86218487 21.2470588,0.941176471 C21.0453782,0.736134454 21.0420168,0.403361345 21.2336134,0.194957983 C21.4285714,-0.0134453782 21.7478992,-0.0201680672 21.9462185,0.181512605 L21.9462185,0.181512605 Z M17.7579832,8.22184874 C17.5663866,8.01344538 17.5697479,7.67731092 17.7714286,7.47563025 C18.2957983,6.94789916 18.5647059,6.13445378 18.5647059,5.06218487 C18.5647059,3.98655462 18.2991597,3.17647059 17.7714286,2.64201681 C17.5697479,2.43697479 17.5663866,2.10420168 17.7579832,1.89579832 C17.9495798,1.68403361 18.2722689,1.68067227 18.4705882,1.88235294 C19.2,2.62184874 19.5697479,3.6907563 19.5697479,5.06218487 C19.5697479,6.43361345 19.2,7.49915966 18.4672269,8.23865546 C18.3697479,8.33613445 18.2420168,8.38319328 18.1176471,8.38319328 C17.989916,8.38319328 17.8588235,8.33277311 17.7579832,8.22184874 L17.7579832,8.22184874 Z" id="Antena_1Light"></path>
        </g>
    </g>
</svg>

<svg width="24" height="24" viewBox="0 0 24 24" xmlns="http://www.w3.org/2000/svg"><path d="M19.627 22.602v-2.343H4.02v2.343h15.607zm-9.005-6.69h2.366l-1.19-3.327-1.176 3.328zm2.743 1.056h-3.12l-.79 2.232h4.706l-.796-2.232zM10.5 7.65L6.397 19.2h1.986l2.938-8.316.01-.017c.014-.033.034-.06.054-.09a.715.715 0 01.054-.085l.067-.05a.488.488 0 01.097-.064l.017-.01c.024-.01.047-.007.07-.01.038-.007.071-.017.108-.017.034 0 .068.01.101.014.027.006.05.003.074.013.007.003.01.01.017.014.034.013.057.036.087.057.024.016.05.033.074.053.02.024.034.05.054.078.02.03.044.057.057.094l.01.017 2.975 8.316H17.2L13.092 7.644c-.37.158-.796.248-1.297.248-.5.004-.928-.084-1.294-.242zm.007-3.963c-.276.276-.414.743-.414 1.375 0 .437.07.79.205 1.059.057.121.125.229.209.313.084.087.191.154.312.211.252.128.575.192.972.192.403 0 .726-.067.978-.195.117-.057.225-.124.312-.212.084-.084.152-.191.212-.312.131-.273.205-.622.205-1.06 0-.631-.141-1.095-.417-1.374-.269-.272-.702-.41-1.29-.41-.585.007-1.019.144-1.284.413zM20.13 19.2c.28 0 .504.239.504.528v3.398a.515.515 0 01-.504.528H3.513a.515.515 0 01-.505-.528v-3.398c0-.29.226-.528.505-.528h1.805L9.654 7.002c-.373-.474-.572-1.116-.572-1.936 0-.932.242-1.65.723-2.135.464-.467 1.13-.706 1.987-.706.857 0 1.526.239 1.99.706.484.487.726 1.207.726 2.135 0 .82-.199 1.458-.572 1.936l4.336 12.201h1.86V19.2zM1.008 5.062c0 1.815.46 3.197 1.368 4.118a.542.542 0 01.014.746.49.49 0 01-.713.013C.565 8.817 0 7.176 0 5.062S.565 1.308 1.677.182a.484.484 0 01.713.013.542.542 0 01-.014.746c-.907.921-1.368 2.306-1.368 4.121zm4.45 3.325a.492.492 0 01-.349-.148C4.38 7.503 4.01 6.434 4.01 5.062c0-1.368.37-2.44 1.1-3.176a.487.487 0 01.712.01.546.546 0 01-.01.746c-.528.531-.794 1.348-.794 2.42 0 1.072.266 1.886.79 2.417a.542.542 0 01.014.746.498.498 0 01-.363.162zM21.947.182c1.113 1.126 1.678 2.77 1.678 4.88 0 2.111-.565 3.755-1.678 4.877a.498.498 0 01-.35.148.496.496 0 01-.362-.16.546.546 0 01.013-.747c.908-.918 1.368-2.3 1.368-4.118 0-1.815-.46-3.2-1.368-4.12a.546.546 0 01-.013-.747.49.49 0 01.712-.013zm-4.188 8.04a.546.546 0 01.013-.746c.525-.528.794-1.342.794-2.414 0-1.075-.266-1.886-.794-2.42a.546.546 0 01-.013-.746.487.487 0 01.713-.014c.729.74 1.099 1.809 1.099 3.18 0 1.372-.37 2.437-1.103 3.177a.494.494 0 01-.35.144.482.482 0 01-.359-.161z" fill="#5CB615" fill-rule="nonzero"/></svg>
